input dmvnmpl;
input dmvnaux;

verbatimtex
  \documentclass[a4paper]{article}
  \usepackage[simple]{dmvn}
  \begin{document}
  \footnotesize
etex

beginfig(0);
draw origin;
endfig;

bye;
